X:1
T:Title
%%score 1 2 3
L:1/8
Q:1/4=180
M:4/4
K:C
V:1 treble nm="Grand Piano"
V:2 bass nm="Grand Piano, Melody"
V:3 bass nm="Grand Piano"
V:1
 c4 e2 e2 | d4 B4 | c2 A2 G4 | G4 A2 B2 | A4 c4 | d2 d2 e4- | e4 g4 | e2 c2 B4 | c4 A2 A2 | G4 E4 | %10
 A2 A2 c4 | B4 A2 G2 | A4 g4 | e2 c2 B4 | c4 A2 A2 | G4 E4 | A2 A2 c4 | B4 A2 G2 | A8 |] %19
V:2
 G,4 A,2 C2 | A,4 G,4 | A,2[K:treble] C2 C4 | G,4 C2 D2 | E4 C4 | D2 A,2 C4- | C4 C4 | E2 E2 D4 | %8
 A,4 C2 A,2 | G,4 G,4 | A,2 C2 A,4 | G,4 A,2[K:treble] C2 | C4 C4 | E2 E2 D4 | A,4 C2 A,2 | %15
 G,4 G,4 | A,2[K:treble] C2 A,4 | G,4 A,2 C2 | C8 |] %19
V:3
 C,4 E,2 C,2 | D,4 G,4 | A,2 G,2 C,4 | C,4 E,2 G,2 | A,4 F,4 | G,2 E,D, C,4- | C,4 G,4 | %7
 A,2 A,2 G,4 | C4 F,2 D,2 | G,4 C,4 | D,2 F,2 E,4 | G,4 A,2 G,2 | C,4 G,4 | A,2 A,2 G,4 | %14
 C4 F,2 D,2 | G,4 C,4 | D,2 F,2 E,4 | G,4 A,2 G,2 | C,8 |] %19

